X: 40494
T: Tommy Bhetty's
R: waltz
M: 3/4
K: Gmajor
|G2 B2 d2|G2 BG dG|G2 b2> a2|g2 f2 e2|
G2 BG dG|G2 B2 d2|DF AF AB|c2 B2 A2|
G2 BG dG|G2 B2 d2|G2 b2> a2|g2 f2 e2|
dg3 AB/c/|d2 c2 A2|G3 BAF|G4 fg|
a2> f2 e2|d4 AB|c2 b2> a2|g2 f2 e2|
d2> e2 d2|B2 A2 B2|DF AF AB|cD BD AD|
G2 BG dG|G2 BG dG|G2 b2> a2|g2 f2 e2|
dg3 AB/c/|d2 c2 A2|G3 BAF|G6|

